lib/healthicons/icons/solid/body/neurology.svg

<svg fill="none" height="48" viewBox="0 0 48 48" width="48" xmlns="http://www.w3.org/2000/svg"><g clip-rule="evenodd" fill="#333" fill-rule="evenodd"><path d="m29.5844 22.8706c1.1594 0 2.2919-.3157 3.2494-.9058.9722.589 2.1196.8978 3.2904.8855l3.7191-1.2217c1.048-.7799 1.7674-1.8611 2.038-3.0625.2705-1.2015.0756-2.4504-.552-3.5377s-1.6499-1.9471-2.8957-2.4353c-.2845-1.1633-1.001-2.2037-2.0307-2.94867l-3.6304-1.14692h-.4087c-.8075-1.0636-2.0198-1.82228-3.4064-2.1318l-7.7833-.39501c-1.2938.09705-2.5138.58418-3.4636 1.38301-.4488-.09552-.9082-.14503-1.3693-.14759-1.1165.00207-2.2085.29582-3.1441.84579-.9356.54996-1.6749 1.33264-2.1286 2.25359l-2.95735 1.8911c-.73587.9-1.13202 1.9897-1.13007 3.1084-.00728.4677.06158.9339.20437 1.3836-.77588.9089-1.19309 2.0257-1.18534 3.1731-.00185 1.3308.56131 2.6116 1.57364 3.579.0817.9527.45049 1.8672 1.06647 2.6443.61598.7772 1.45568 1.3875 2.42828 1.7649 1.1206.6342 2.0695 1.4871 2.7768 2.4959.7074 1.0089 1.1552 2.1481 1.3106 3.3338h2.7184v-7.7432l-2.6418-2.3482-1.7874 1.7875c-.3906.3905-1.0237.3905-1.4143 0-.3905-.3905-.3905-1.0237 0-1.4142l2.084-2.084-.6351-3.4927-2.8253-1.4127c-.494-.247-.69422-.8477-.4472-1.3417.247-.4939.8476-.6942 1.3416-.4472l2.7668 1.3834 3.4617-2.2028-1.0666-2.8441c-.1939-.5171.0681-1.0935.5852-1.2875.5171-.1939 1.0936.0681 1.2875.5852l1.1376 3.0336h1.3989l.6492-1.2984-.9503-2.2174c-.2175-.50762.0176-1.0955.5252-1.31306.5077-.21755 1.0956.0176 1.3131.52523l.8258 1.92683 3.2997.5999c.0185-.0173.0378-.034.0579-.05l2.0455-1.6364c.4313-.345 1.0606-.2751 1.4056.1562.345.4312.275 1.0605-.1562 1.4055l-1.4717 1.1774 1.7292 2.2231.6779-1.3558c.1694-.3388.5157-.5528.8944-.5528h2.4546c.5523 0 1 .4477 1 1s-.4477 1-1 1h-1.8365l-.4193.8386 2.0636.4585c.0798.0178.1571.0452.2303.0818l1.6363.8182c.494.247.6942.8476.4473 1.3416-.247.494-.8477.6942-1.3417.4472l-1.5262-.7631-3.5617-.7915c-.2271-.0505-.4296-.1786-.5724-.3622l-2.6291-3.3803-3.2633-.5933c-.0617.0575-.1315.1078-.2086.1491l-.7006 1.4012v.8087h1.4546c.1553 0 .3084.0362.4472.1056l3.2728 1.6364c.4939.247.6942.8476.4472 1.3416s-.8477.6942-1.3417.4472l-3.0616-1.5308h-1.2185v1.8643c0 .5523-.4477 1-1 1s-1-.4477-1-1v-3.9091h-1.5724l-3.6871 2.3463.6362 3.4991 3.4241 3.0435c.2134.1898.3356.4618.3356.7474v8.1923h2.9172v-5.5346c-.0014-.9826.3023-1.946.8767-2.7808.5743-.8347 1.3963-1.5075 2.3728-1.942.5491-.1896.6842-.4449.8497-.7577.1103-.2085.2342-.4425.503-.6997.2336.1439.4145.2716.5715.3822v.0001c.4866.3431.7425.5235 1.6192.5235z"/><path d="m23 38h-8v-2h8z"/><path d="m23 42h-8v-2h8z"/></g></svg>

<svg width="48" height="48" viewBox="0 0 48 48" fill="none" xmlns="http://www.w3.org/2000/svg">
<path fill-rule="evenodd" clip-rule="evenodd" d="M29.5844 22.8706C30.7438 22.8706 31.8763 22.5549 32.8338 21.9648C33.806 22.5538 34.9534 22.8626 36.1242 22.8503L39.8433 21.6286C40.8913 20.8487 41.6107 19.7675 41.8813 18.5661C42.1518 17.3646 41.9569 16.1157 41.3293 15.0284C40.7017 13.9411 39.6794 13.0813 38.4336 12.5931C38.1491 11.4298 37.4326 10.3894 36.4029 9.64443L32.7725 8.49751H32.3638C31.5563 7.43391 30.344 6.67523 28.9574 6.36571L21.1741 5.9707C19.8803 6.06775 18.6603 6.55488 17.7105 7.35371C17.2617 7.25819 16.8023 7.20868 16.3412 7.20612C15.2247 7.20819 14.1327 7.50194 13.1971 8.05191C12.2615 8.60187 11.5222 9.38455 11.0685 10.3055L8.11115 12.1966C7.37528 13.0966 6.97913 14.1863 6.98108 15.305C6.9738 15.7727 7.04266 16.2389 7.18545 16.6886C6.40957 17.5975 5.99236 18.7143 6.00011 19.8617C5.99826 21.1925 6.56142 22.4733 7.57375 23.4407C7.65545 24.3934 8.02424 25.3079 8.64022 26.085C9.2562 26.8622 10.0959 27.4725 11.0685 27.8499C12.1891 28.4841 13.138 29.337 13.8453 30.3458C14.5527 31.3547 15.0005 32.4939 15.1559 33.6796H17.8743V25.9364L15.2325 23.5882L13.4451 25.3757C13.0545 25.7662 12.4214 25.7662 12.0308 25.3757C11.6403 24.9852 11.6403 24.352 12.0308 23.9615L14.1148 21.8775L13.4797 18.3848L10.6544 16.9721C10.1604 16.7251 9.96018 16.1244 10.2072 15.6304C10.4542 15.1365 11.0548 14.9362 11.5488 15.1832L14.3156 16.5666L17.7773 14.3638L16.7107 11.5197C16.5168 11.0026 16.7788 10.4262 17.2959 10.2322C17.813 10.0383 18.3895 10.3003 18.5834 10.8174L19.721 13.851H21.1199L21.7691 12.5526L20.8188 10.3352C20.6013 9.82758 20.8364 9.2397 21.344 9.02214C21.8517 8.80459 22.4396 9.03974 22.6571 9.54737L23.4829 11.4742L26.7826 12.0741C26.8011 12.0568 26.8204 12.0401 26.8405 12.0241L28.886 10.3877C29.3173 10.0427 29.9466 10.1126 30.2916 10.5439C30.6366 10.9751 30.5666 11.6044 30.1354 11.9494L28.6637 13.1268L30.3929 15.3499L31.0708 13.9941C31.2402 13.6553 31.5865 13.4413 31.9652 13.4413H34.4198C34.9721 13.4413 35.4198 13.889 35.4198 14.4413C35.4198 14.9936 34.9721 15.4413 34.4198 15.4413H32.5833L32.164 16.2799L34.2276 16.7384C34.3074 16.7562 34.3847 16.7836 34.4579 16.8202L36.0942 17.6384C36.5882 17.8854 36.7884 18.486 36.5415 18.98C36.2945 19.474 35.6938 19.6742 35.1998 19.4272L33.6736 18.6641L30.1119 17.8726C29.8848 17.8221 29.6823 17.694 29.5395 17.5104L26.9104 14.1301L23.6471 13.5368C23.5854 13.5943 23.5156 13.6446 23.4385 13.6859L22.7379 15.0871V15.8958H24.1925C24.3478 15.8958 24.5009 15.932 24.6397 16.0014L27.9125 17.6378C28.4064 17.8848 28.6067 18.4854 28.3597 18.9794C28.1127 19.4734 27.512 19.6736 27.018 19.4266L23.9564 17.8958H22.7379V19.7601C22.7379 20.3124 22.2902 20.7601 21.7379 20.7601C21.1856 20.7601 20.7379 20.3124 20.7379 19.7601V15.851H19.1655L15.4784 18.1973L16.1146 21.6964L19.5387 24.7399C19.7521 24.9297 19.8743 25.2017 19.8743 25.4873V33.6796H22.7915V28.145C22.7901 27.1624 23.0938 26.199 23.6682 25.3642C24.2425 24.5295 25.0645 23.8567 26.041 23.4222C26.5901 23.2326 26.7252 22.9773 26.8907 22.6645C27.001 22.456 27.1249 22.222 27.3937 21.9648C27.6273 22.1087 27.8082 22.2364 27.9652 22.347C28.4518 22.6901 28.7077 22.8706 29.5844 22.8706Z" fill="#333333"/>
<path fill-rule="evenodd" clip-rule="evenodd" d="M23 38.0001H15V36.0001H23V38.0001Z" fill="#333333"/>
<path fill-rule="evenodd" clip-rule="evenodd" d="M23 42.0001H15V40.0001H23V42.0001Z" fill="#333333"/>
</svg>
